X:1
T:What More Can He Do?
T:What More Can He Do?
T:John Robson Sweney
T:Rachel Rivers, 1907
T:Public Domain Courtesy of the Cyber Hymnal™
T:Public Domain Courtesy of the Cyber Hymnal™
C:John Robson Sweney
Z:Public Domain
Z:Courtesy of the Cyber Hymnal™
%%score ( 1 2 ) ( 3 4 )
L:1/8
Q:1/4=83
M:6/8
K:Eb
V:1 treble 
V:2 treble 
V:3 bass 
V:4 bass 
V:1
 [EG] | [EG][EG][FA] [Ec][EB][EG] | [DB][DF][DA] [EG]2 [EB] | [Ec][Ec][Ee] [Ec][EB][EG] | %4
w: 1.~O|lost ones, in dan- ger no|long- er re- main! The|Sav- ior is call- ing a-|
w: 2.~He|calls thro’ the Gos- pel, re-|pent and be- lieve; He|calls and en- treats you His|
w: 3.~He|calls thro’ His mer- cy, and|still you de- lay; He|calls by His Spir- it, you|
w: 4.~O|haste, He is wait- ing, you|can- not re- fuse The|way of sal- va- tion with|
 [DB][DF][EG] [DF]2 [AB] | [GB][^F=A][GB] [Ge][Bd][Ac] | [GB][FA][EG] [Ec]2 [Ee] | %7
w: gain and a- gain; Re-|mem- ber the an- guish He|suf- fered for you; His|
w: grace to re- ceive; He|of- fers full par- don, and|on- ly de- mands Your|
w: grieve Him a- way; Ah,|soon your pro- ba- tion per-|haps may be o’er, And|
w: glad- ness to choose! His|blood of a- tone- ment is|flow- ing for you, He|
 [Ee][Ed][Ec] [Ec]!fermata![EB]E | [B,E][EG][DF] !fermata!E2 ||"^Refrain" [GB] | %10
w: life paid your ran- som— what|more can He do?||
w: lov- ing sub- mis- sion to|all He com- mands.|What|
w: then your Re- deem- er will|call you no more!||
w: of- fers it free- ly— what|more can He do?||
 [GB][^F=A][GB] [Ge]2 [EG] | [EG][E^F][EG] [EB]2 E | E[EF][EG] [Ac][GB][EG] | %13
w: |||
w: more can He do, what|more can He do— His|hands and His feet to the|
w: |||
w: |||
 [DB][DF][EG] [DF]2 [AB] | [GB][^F=A][GB] [Ge]2 [EG] | [EG][DA][EB] [Ec]2 [Ee] | %16
w: |||
w: cross nailed for you? What|more can He do, what|more can He do— His|
w: |||
w: |||
 [Ee][Ed][Ec] [Ec]!fermata![EB]E | [B,E][EG][DF] !fermata!E2 |] %18
w: ||
w: life paid your ran- som— what|more can He do?|
w: ||
w: ||
V:2
 x | x6 | x6 | x6 | x6 | x6 | x6 | x5 E | x3 E2 || x | x6 | x5 E | E x5 | x6 | x6 | x6 | x5 E | %17
 x3 E2 |] %18
V:3
 [E,B,] | [E,B,][E,B,][E,B,] [E,A,][E,G,][E,B,] | [B,,A,][B,,A,][B,,A,] [E,B,]2 [G,B,] | %3
 A,A,[A,C] [E,A,][E,G,][E,B,] | [B,,B,][B,,B,][B,,B,] [B,,B,]2 [B,,D] | %5
 [E,E][E,E][E,E] [E,B,][E,E][E,E] | [E,E][F,D][G,_D] [A,C]2 [A,C] | %7
 [A,C][A,B,]A, [E,A,]!fermata![E,G,][_C,^F,] | [B,,G,][B,,B,][B,,A,] !fermata![E,G,]2 || [G,E] | %10
 [G,E][G,E][G,E] [E,B,]2 [E,B,] | [E,B,][E,=A,][E,B,] [E,G,]2 [E,G,] | %12
 [E,G,][E,A,][E,B,] [E,E][E,E][E,B,] | [B,,B,][B,,B,][B,,B,] [B,,B,]2 [B,,D] | %14
 [E,E][E,E][E,E] [E,B,]2 [E,B,] | [E,B,][F,B,][G,B,] A,2 [A,C] | %16
 [A,C][A,B,]A, [E,A,]!fermata![E,G,][_C,^F,] | [B,,G,][B,,B,][B,,A,] !fermata![E,G,]2 |] %18
V:4
 x | x6 | x6 | A,A, x4 | x6 | x6 | x6 | x2 A, x3 | x5 || x | x6 | x6 | x6 | x6 | x6 | x3 A,2 x | %16
 x2 A, x3 | x5 |] %18

